assets/icons/calendar-2-fill.svg

<svg width="20" height="20" viewBox="0 0 20 20" fill="none" xmlns="http://www.w3.org/2000/svg">
<path d="M5.83496 3.33301V2.08301M14.1683 3.33301V2.08301" stroke="currentColor" stroke-width="1.25" stroke-linecap="round"/>
<path d="M11.668 3.33301C14.8105 3.33301 16.3826 3.3329 17.3584 4.30957C18.3341 5.28625 18.335 6.85768 18.335 10V11.666C18.335 14.8083 18.3349 16.3806 17.3584 17.3564C16.3817 18.3323 14.8105 18.333 11.668 18.333H8.33496C5.19246 18.333 3.62036 18.3331 2.64453 17.3564C1.6687 16.3798 1.66797 14.8085 1.66797 11.666V10C1.66797 9.05998 1.66819 8.2602 1.69434 7.5752C1.73182 7.88455 1.99303 8.125 2.3125 8.125H17.6719C18.0169 8.125 18.2966 7.84495 18.2969 7.5C18.2969 7.15482 18.0171 6.875 17.6719 6.875H2.3125C2.0159 6.875 1.76813 7.08125 1.7041 7.3584C1.77577 5.88131 1.9914 4.96214 2.64453 4.30957C3.6212 3.33374 5.19246 3.33301 8.33496 3.33301H11.668ZM5.83301 13.333C5.61211 13.3331 5.40034 13.4209 5.24414 13.5771C5.08795 13.7334 5.00004 13.9451 5 14.166C5 14.387 5.08786 14.5996 5.24414 14.7559C5.40032 14.9119 5.61223 14.9989 5.83301 14.999C6.05398 14.999 6.26658 14.9121 6.42285 14.7559C6.57913 14.5996 6.66699 14.387 6.66699 14.166C6.66695 13.9452 6.57894 13.7334 6.42285 13.5771C6.26657 13.4209 6.05402 13.333 5.83301 13.333ZM10 13.333C9.77902 13.333 9.56741 13.4209 9.41113 13.5771C9.25489 13.7334 9.16704 13.9451 9.16699 14.166C9.16699 14.387 9.25485 14.5996 9.41113 14.7559C9.56737 14.9119 9.77918 14.999 10 14.999C10.2208 14.999 10.4326 14.9119 10.5889 14.7559C10.7451 14.5996 10.833 14.387 10.833 14.166C10.833 13.9451 10.7451 13.7334 10.5889 13.5771C10.4326 13.4209 10.221 13.333 10 13.333ZM14.167 13.333C13.946 13.333 13.7334 13.4209 13.5771 13.5771C13.4211 13.7334 13.3331 13.9452 13.333 14.166C13.333 14.387 13.4209 14.5996 13.5771 14.7559C13.7334 14.9121 13.946 14.999 14.167 14.999C14.3878 14.9989 14.5997 14.9119 14.7559 14.7559C14.9121 14.5996 15 14.387 15 14.166C15 13.9451 14.9121 13.7334 14.7559 13.5771C14.5997 13.4209 14.3879 13.3331 14.167 13.333ZM5.83301 10C5.61223 10.0001 5.40032 10.0871 5.24414 10.2432C5.08786 10.3994 5 10.612 5 10.833C5.00004 11.0539 5.08795 11.2656 5.24414 11.4219C5.40034 11.5781 5.61211 11.6659 5.83301 11.666C6.05402 11.666 6.26657 11.5782 6.42285 11.4219C6.57894 11.2657 6.66695 11.0538 6.66699 10.833C6.66699 10.612 6.57913 10.3994 6.42285 10.2432C6.26658 10.0869 6.05398 10 5.83301 10ZM10 10C9.77918 10 9.56737 10.0871 9.41113 10.2432C9.25485 10.3994 9.16699 10.612 9.16699 10.833C9.16704 11.054 9.25489 11.2656 9.41113 11.4219C9.56741 11.5781 9.77903 11.666 10 11.666C10.221 11.666 10.4326 11.5781 10.5889 11.4219C10.7451 11.2656 10.833 11.054 10.833 10.833C10.833 10.612 10.7451 10.3994 10.5889 10.2432C10.4326 10.0871 10.2208 10 10 10ZM14.167 10C13.946 10 13.7334 10.0869 13.5771 10.2432C13.4209 10.3994 13.333 10.612 13.333 10.833C13.3331 11.0538 13.4211 11.2657 13.5771 11.4219C13.7334 11.5782 13.946 11.666 14.167 11.666C14.3879 11.6659 14.5997 11.5781 14.7559 11.4219C14.9121 11.2656 15 11.0539 15 10.833C15 10.612 14.9121 10.3994 14.7559 10.2432C14.5997 10.0871 14.3878 10.0001 14.167 10ZM1.7041 7.3584C1.70066 7.42937 1.69714 7.50161 1.69434 7.5752C1.69134 7.55046 1.68752 7.52554 1.6875 7.5C1.6875 7.45142 1.69362 7.40379 1.7041 7.3584Z" fill="currentColor"/>
</svg>

<svg xmlns="http://www.w3.org/2000/svg" width="20" height="20" fill="none" viewBox="0 0 20 20"><path stroke="currentColor" stroke-linecap="round" stroke-width="1.25" d="M5.835 3.333v-1.25m8.333 1.25v-1.25"/><path fill="currentColor" d="M11.668 3.333c3.143 0 4.715 0 5.69.977.976.976.977 2.548.977 5.69v1.666c0 3.142 0 4.715-.977 5.69-.976.976-2.548.977-5.69.977H8.335c-3.143 0-4.715 0-5.69-.977-.976-.976-.977-2.548-.977-5.69V10c0-.94 0-1.74.026-2.425.038.31.299.55.619.55h15.359a.625.625 0 0 0 0-1.25H2.312a.624.624 0 0 0-.608.483c.072-1.477.287-2.396.94-3.048.977-.976 2.548-.977 5.691-.977zm-5.835 10a.833.833 0 1 0 0 1.667.833.833 0 0 0 0-1.667m4.167 0a.833.833 0 1 0 0 1.666.833.833 0 0 0 0-1.666m4.167 0a.835.835 0 0 0-.59 1.423.834.834 0 0 0 1.179-1.179.83.83 0 0 0-.589-.244M5.833 10a.833.833 0 1 0-.001 1.666A.833.833 0 0 0 5.833 10M10 10a.833.833 0 1 0-.002 1.665A.833.833 0 0 0 10 10m4.167 0a.834.834 0 1 0-.003 1.668.834.834 0 0 0 .003-1.668M1.704 7.358l-.01.217q-.005-.037-.006-.075a.6.6 0 0 1 .016-.142"/></svg>
